X:1
T:Psalm 140
T:V 8
L:1/4
M:14/4
I:linebreak $
K:G
V:1 treble nm="Pipe Organ" snm="Org."
V:1
 G2 G A B2 B c2 B A3 z |$[M:14/4] B2 c B A G F2 G2 A3 z |$[M:14/4] d2 c B A2 F2 G E D3 z |$ %3
w: Werp vuur- ge ko- le op hul af,|laat vlam- me om hul len- de slaan;|'n die- pe kuil- maak dit hul graf|
[M:14/4] B2 c B A G B2 A2 G4 |] %4
w: Waar- uit hul nooit weer op sal staan!|

